img/linkedin.svg

<svg xmlns="http://www.w3.org/2000/svg" xmlns:xlink="http://www.w3.org/1999/xlink" preserveAspectRatio="xMidYMid" width="18.03" height="18.375" viewBox="0 0 18.03 18.375">
  <defs>
    <style>
      .cls-1 {
        fill: #182a33;
        fill-rule: evenodd;
      }
    </style>
  </defs>
  <path d="M4.004,2.033 C4.004,3.157 3.303,4.077 2.002,4.077 C0.800,4.077 -0.001,3.157 -0.001,2.135 C-0.001,1.012 0.800,-0.010 2.002,-0.010 C3.203,-0.010 4.004,0.910 4.004,2.033 ZM-0.001,18.379 L4.004,18.379 L4.004,5.098 L-0.001,5.098 L-0.001,18.379 ZM13.618,5.302 C11.515,5.302 10.313,6.528 9.813,7.345 L9.712,7.345 L9.512,5.609 L5.907,5.609 C5.907,6.733 6.007,8.061 6.007,9.593 L6.007,18.379 L10.013,18.379 L10.013,11.125 C10.013,10.717 10.013,10.410 10.113,10.104 C10.413,9.389 10.914,8.469 12.016,8.469 C13.418,8.469 14.018,9.695 14.018,11.330 L14.018,18.379 L18.024,18.379 L18.024,10.819 C18.024,7.039 16.121,5.302 13.618,5.302 Z" class="cls-1"/>
</svg>

<svg xmlns="http://www.w3.org/2000/svg" width="18.03" height="18.375" preserveAspectRatio="xMidYMid"><defs><style>.cls-1 { fill: #182a33; fill-rule: evenodd; }</style></defs><path d="M4 2.03c0 1.13-.7 2.05-2 2.05-1.2 0-2-.92-2-1.95C0 1 .8 0 2 0s2 .9 2 2.03zM0 18.38h4V5.1H0v13.28zM13.62 5.3c-2.1 0-3.3 1.23-3.8 2.04h-.1l-.2-1.73H5.9c0 1.13.1 2.46.1 4v8.78h4v-7.25c0-.4 0-.72.1-1.03.3-.7.8-1.63 1.9-1.63 1.4 0 2 1.22 2 2.86v7.05h4v-7.56c0-3.78-1.9-5.52-4.4-5.52z" class="cls-1"/></svg>
